!!!!SEGMENT: pl-kk--kk-i-382--025-001_anonim--nro-10-kyrie.krn
!!!cenid: 18xx:1504
!!!COM: Anonim
!!!COM-rismid: pe30004985
!!!CDT:
!!!CNT:
!!!OTL: Nro 10 Kyrie
!!!PDT:
!!!AGN: Sacred
!!!SMS-siglum: PL-Kk
!!!SMS-shelfmark: Kk.I.382
!!!SMS-shelfwork: 025-001
!!!SMS-variant:
!!!SMS-altvar:
!!!NIFC-rismid: 1001139157
!!!URL-scan: http://repozytorium.nifc.pl/skany/pl-kk-nut--i-382
!!!ONB-nifc: UWAGA: obsada: S (T 1), A (B 1), T 2, B 2; S (T 1): skan 0025; A (B 1): skan 0172; T 2: skan 0097; B 2: skan 0244
**kern	**text	**kern	**text	**kern	**text	**kern	**text
*part4	*part4	*part3	*part3	*part2	*part2	*part1	*part1
*staff4	*staff4	*staff3	*staff3	*staff2	*staff2	*staff1	*staff1
*I"Basso II	*	*I"Tenore II	*	*I"Alto vel Basso I	*	*I"Soprano vel Tenore I.	*
*I'B 2	*	*I'T 2	*	*I'Alto vel Basso I	*	*I'Soprano vel Tenore I.	*
*clefF4	*	*clefC4	*	*clefC3	*	*clefC1	*
*k[b-e-a-]	*	*k[b-e-a-]	*	*k[b-e-a-]	*	*k[b-e-a-]	*
*M4/4	*	*M4/4	*	*M4/4	*	*M4/4	*
*met(C.)	*	*met(C.)	*	*met(C.)	*	*met(C.)	*
=1	=1	=1	=1	=1	=1	=1	=1
*2\right	*	*2\right	*	*2\right	*	*2\right	*
!LO:TX:t=P:problem:all\right:global	!	!	!	!	!	!	!
!LO:TX:t=P:problem:w źródle następująca kolejność i wysokość znaków przykluczowych - BB- E- A-	!	!LO:TX:t=P:problem:all\right:global	!	!LO:TX:t=P:problem:all\right:global	!	!LO:TX:t=P:problem:all\right:global	!
!LO:TX:a:i:t=in Cmol. \nNro. 10. Kyrie	!	!	!	!	!	!	!
!LO:TX:a:t=P:problem:w źródle ta adnotacja zapisana przed pierwszym taktem, na pięciolinii i częściowo nad pięciolinią	!	!LO:TX:a:t=P:problem:w źródle ta adnotacja zapisana przed pierwszym taktem, na pięciolinii	!	!LO:TX:a:t=P:problem:w źródle ta adnotacja zapisana przed pierwszym taktem, na pięciolinii i częściowo przed pięciolinią	!	!LO:TX:a:t=P:problem:w źródle ta adnotacja zapisana przed pierwszym taktem, na pięciolinii i częściowo przed pięciolinią	!
!	!	!LO:TX:a:i:t=Nro. 10. Kyrie	!	!LO:TX:a:i:t=Nro. 10. Kyrye.	!	!LO:TX:a:i:t=Nro 10. Kyrie	!
(>4C\	Ky-	2.c\	Ky-	2.g\	Ky-	2.ee-\	Ky-
4E-\)	.	.	.	.	.	.	.
(>4G\	-ri-	.	.	.	.	.	.
4E-\)	.	4c\	-ri-	4g\	-ri-	4ee-\	-ri-
=2	=2	=2	=2	=2	=2	=2	=2
4C/	-e	4c\	-e	4g\	-e	4ee-\	-e
4G\	e-	4e-\	e-	4g\	e-	4ee-\	e-
(>8G\L	-lei-	(>8e-\L	-lei-	(>8g\L	-le-	(>8ee-\L	-le-
8F\J)	.	8d\J)	.	8f\J)	.	8dd\J)	.
(>8A-\L	-son	(>8f\L	-son	(>8a-\L	-i-	(>8ff\L	-i-
8G\J)	.	8e-\J)	.	8g\J)	.	8ee-\J)	.
=3	=3	=3	=3	=3	=3	=3	=3
(>4GG/	Ky-	2.Bn\	Ky-	4f\	-son	4dd\	-son
4BBn/)	.	.	.	2f\	Ky-	2dd\	Ky-
(>4D/	-ri-	.	.	.	.	.	.
4BB/)	.	4B\	-ri-	4g\	-ri-	4dd\	-ri-
!	!	!LO:LB:g=original	!	!	!	!LO:LB:g=original	!
=4	=4	=4	=4	=4	=4	=4	=4
4GG/	-e	4Bn\	-e	4g\	-e	4dd\	-e
4G\	e-	4B\	e-	4g\	e-	4dd\	e-
4G\	-lei-	(>8B\L	-le-	2g\	-lei-	(>8dd\L	-le-
.	.	8c\J)	.	.	.	8ee-\J)	.
4G\	-son	(>8d\L	-j-	.	.	(>8ff\L	-i-
.	.	8B\J)	.	.	.	8dd\J)	.
!LO:LB:g=original	!	!	!	!	!	!	!
=5	=5	=5	=5	=5	=5	=5	=5
(>4C/	Ky-	4c\	-son	4g\	-son	4ee-\	-son
!	!	!	!	!LO:LB:g=original	!	!	!
4E-/)	.	2c\	Ky-	2g\	Ky-	2ee-\	Ky-
(>4G\	-ri-	.	.	.	.	.	.
4c\)	.	4c\	-ri-	4g\	-ri-	4ee-\	-ri-
=6	=6	=6	=6	=6	=6	=6	=6
2G\	-e	2Bn\	-e	2g\	-e	2dd\	-e
2G\	e-	2B\	e-	2g\	e-	2dd\	e-
=7	=7	=7	=7	=7	=7	=7	=7
(>4c\	-le-	(>4c\	-le-	(>4g\	-le-	(>4ee-\	-le-
4A-X\)	.	4Bn\)	.	4f\)	.	4dd\)	.
(>4G\	-i-	2c\	-i-	(>4g\	-i-	2ee-\	-i-
4F#X\)	.	.	.	4an\)	.	.	.
=8	=8	=8	=8	=8	=8	=8	=8
2.G\	-son.	2.Bn\	-son,	2.g\	-son	2.dd\	-son
!	!	!LO:TX:a:t=P:problem:w źródle ta adnotacja zapisana za taktem 8, na pięciolinii	!	!	!	!	!
!	!	!LO:TX:b:i:t=V&colon; S&colon;	!	!	!	!	!
4r	.	4r	.	4r	.	4r	.
!	!	!LO:PB:g=original	!	!	!	!	!
=9	=9	=9	=9	=9	=9	=9	=9
4.Fn\	Ky-	4.Bn\	Ky-	4.a-X\	Ky-	4.dd\	Ky-
8F\	-ri-	8B\	-ri-	8a-\	-ri-	8dd\	-ri-
4F\	-e	4B\	-e	4a-\	-e	4dd\	-e
4F\	e-	4B\	e-	4a-\	e-	4dd\	e-
!	!	!	!	!	!	!LO:LB:g=original	!
=10	=10	=10	=10	=10	=10	=10	=10
4E-\	-le-	4c\	-le-	4g\	-le-	4cc\	-le-
4D\	-i-	4Bn\	-i-	4f\	-i-	4dd\	-i-
4C/	-son	4c\	-son	4g\	-son	4ee-\	-son
4GG/	e-	4B\	e-	4g\	e-	4dd\	e-
!LO:LB:g=original	!	!	!	!	!	!	!
=11	=11	=11	=11	=11	=11	=11	=11
2C/	-le-	(>4c\	-le-	1g	-lei-	(>4ee-\	-le-
.	.	8Bn\L	.	.	.	8dd\L	.
.	.	8c\J	.	.	.	8ee-\J)	.
(>4BBn/	-i-	4d\)	.	.	.	(>4ff\	-i-
4C/)	.	4c\	-i-	.	.	4ee-\)	.
!	!	!	!	!LO:LB:g=original	!	!	!
=12	=12	=12	=12	=12	=12	=12	=12
2G\	-son	2Bn\	-son	2g\	-son	2dd\	-son
4r	.	4r	.	4r	.	4r	.
4G\	e-	4B\	e-	4g\	e-	4dd\	e-
=13	=13	=13	=13	=13	=13	=13	=13
2F#X\	-lei-	2c\	-lei-	2an\	-lei-	2ee-\	-lei-
4G\	-son	4Bn\	-son	4g\	-son	4dd\	-son
4G\	e-	4B\	e-	4g\	e-	4dd\	e-
!	!	!LO:LB:g=original	!	!	!	!	!
=14	=14	=14	=14	=14	=14	=14	=14
4F#X\	-lei-	4c\	-lei-	4an\	-lei-	4ee-\	-lei-
4G\	-son	4Bn\	-son.	4g\	-son	4dd\	-son
2r	.	2r	.	2r	.	2r	.
!	!	!	!	!	!	!LO:LB:g=original	!
=15	=15	=15	=15	=15	=15	=15	=15
(>8E-X\L	Chri-	2e-\	Chri-	(>4e-X\	Chri-	4b-\	Chri-
8G\	.	.	.	.	.	.	.
8B-\	.	.	.	4g\)	.	4b-\	-ste
8G\J)	.	.	.	.	.	.	.
4E-\	-ste	4e-\	-ste	(>8g\L	-ste	(>8b-\L	e-
.	.	.	.	8a-X\J)	.	8cc\	.
4D\	e-	4B-X\	e-	(>8g\L	e-	8b-\	.
.	.	.	.	8f\J)	.	8a-\J)	.
=16	=16	=16	=16	=16	=16	=16	=16
4D\	-lei-	4B-\	-lei-	4f\	-lei-	4a-\	-lei-
4E-\	-son	4B-\	-son	4e-\	-son	4g\	-son
!LO:LB:g=original	!	!	!	!	!	!	!
4r	.	4r	.	4r	.	4r	.
4E-\	e-	4B-\	e-	(>8g\L	e-	(>8b-\L	e-
.	.	.	.	8e-\J)	.	8g\J)	.
=17	=17	=17	=17	=17	=17	=17	=17
4BB-/	-lei-	4A-X\	-lei-	4d\	-lei-	4f/	-lei-
!	!	!	!	!LO:LB:g=original	!	!	!
8BB-/	-son	8A-/	-son	8d\	-son	8f/	-son
8BB-/	e-	8A-/	e-	8e-\	e-	8g/	e-
4D\	-le-	2B-\	-lei-	(>8g\L	-le-	(>8b-\L	-le-
.	.	.	.	8f\J)	.	8a-\J)	.
4BB-/	-i-	.	.	(>8e-\L	-i-	(<8g/L	-i-
.	.	.	.	8d\J)	.	8f/J)	.
=18	=18	=18	=18	=18	=18	=18	=18
4E-\	-son	4B-\	-son	4e-\	-son	4g\	-son
4E-\	e-	(>4G\	Chri-	4e-\	e-	(>4b-\	Chri-
4E-\	-le-	4A-\	.	2e-\	-lei-	4cc\	.
4G\	-i-	4B-\)	.	.	.	4dd-X\)	.
!	!	!LO:LB:g=original	!	!	!	!LO:LB:g=original	!
=19	=19	=19	=19	=19	=19	=19	=19
4A-\	-son	4A-\	-ste	4e-\	-son	4cc\	-ste
4F\	e-	4An\	e-	4f\	e-	4cc\	e-
4F\	-le-	4B-X\	-le-	2f\	-lei-	4ddn\	-le-
4An\	-i-	4c\	-i-	.	.	4ee-\	-i-
=20	=20	=20	=20	=20	=20	=20	=20
2B-\	-son	2B-\	-son	2f\	-son	2dd\	-son
4r	.	4r	.	4r	.	4r	.
4BB-/	e-	4B-\	e-	(>8f\L	Chri-	(>8dd\L	e-
.	.	.	.	8g\J)	.	8ee-\J)	.
!LO:LB:g=original	!	!	!	!	!	!	!
=21	=21	=21	=21	=21	=21	=21	=21
2BB-/	-le-	(>4d\	-le-	4a-\	-ste	(>4ff\	-le-
.	.	2B-\)	.	(>2g\	e-	2ee-\)	.
2B-\	-i-	.	.	.	.	.	.
.	.	4B-\	-i-	4f\)	.	4dd\	-i-
!	!	!	!	!LO:LB:g=original	!	!	!
=22	=22	=22	=22	=22	=22	=22	=22
4E-\	-son	4B-\	-son	(>4g\	-le-	4ee-\	-son
4F\	e-	4r	.	8f\L	.	(>8dd\L	e-
.	.	.	.	8e-\J	.	8cc\J)	.
8G\L	-le-	4r	.	8d\L	.	(>8b-\L	-le-
8A-\	.	.	.	8a-\	.	8cc\	.
8G\	.	4B-\	e-	8g\	.	8b-\	.
8A-\J	.	.	.	(>8f\J)	.	8a-\J)	.
=23	=23	=23	=23	=23	=23	=23	=23
2B-\	.	1B-	-lei-	2e-\)	.	2g\	.
2BB-/	-i-	.	.	2d\	-i-	2f\	-i-
=24	=24	=24	=24	=24	=24	=24	=24
2E-\	-son	2B-\	-son	2.e-\	-son.	1g	-son
2r	.	2r	.	.	.	.	.
.	.	.	.	4r	.	.	.
!	!	!LO:LB:g=original	!	!	!	!LO:LB:g=original	!
=25	=25	=25	=25	=25	=25	=25	=25
4.En\	Ky-	4.B-\	Ky-	4.g\	Ky-	4.dd-X\	Ky-
8E\	-ri-	8B-\	-ri-	8g\	-ri-	8dd-\	-ri-
4E\	-e	4B-\	-e	4g\	-e	4dd-\	-e
4E\	e-	4B-\	e-	4g\	e-	4dd-\	e-
=26	=26	=26	=26	=26	=26	=26	=26
4F\	-le-	4A-\	-le-	4a-\	-le-	4cc\	-le-
4G\	-i-	4B-\	-i-	4g\	-i-	4b-\	-i-
4A-\	-son	4c\	-son	4f\	-son	4a-\	-son
4F\	e-	4A-\	e-	4a-\	e-	4cc\	e-
!LO:LB:g=original	!	!	!	!	!	!	!
=27	=27	=27	=27	=27	=27	=27	=27
(>4B-\	-le-	(>4d-X\	-le-	2g\	-le-	(>4b-\	-le-
4G\)	.	4B-\)	.	.	.	4dd-X\)	.
(>4c\	-i-	2c\	-i-	2en\	-i-	2g\	-i-
4C/)	.	.	.	.	.	.	.
=28	=28	=28	=28	=28	=28	=28	=28
2F\	-son	2c\	-son	2.f\	-son	4a-\	-son
.	.	.	.	.	.	4r	.
2r	.	2r	.	.	.	2r	.
.	.	.	.	4r	.	.	.
!	!	!	!	!LO:LB:g=original	!	!	!
=29	=29	=29	=29	=29	=29	=29	=29
4.F#X\	Ky-	4.c\	Ky-	4.an\	Ky-	4.ee-\	Ky-
8F#\	-ri-	8c\	-ri-	8a\	-ri-	8ee-\	-ri-
4F#\	-e	4c\	-e	4a\	-e	4ee-\	-e
4F#\	e-	4c\	e-	4a\	e-	4ee-\	e-
!	!	!LO:LB:g=original	!	!	!	!LO:LB:g=original	!
=30	=30	=30	=30	=30	=30	=30	=30
4G\	-le-	4B-\	-le-	4b-\	-le-	4ddn\	-le-
4An\	-i-	4c\	-i-	4an\	-i-	4cc\	-i-
4B-\	-son	4dn\	-son	4g\	-son	4b-\	-son
4G\	e-	4B-\	e-	4b-\	e-	4dd\	e-
=31	=31	=31	=31	=31	=31	=31	=31
(>4c\	-le-	2e-\	-le-	(>2an\	-le-	2cc\	-le-
4An\)	.	.	.	.	.	.	.
(>4d\	-i-	2d\	-i-	4g\)	.	(>4b-\	-i-
4D\)	.	.	.	4f#X\	-i-	4an\)	.
=32	=32	=32	=32	=32	=32	=32	=32
2G\	-son.	2d\	-son	2.g\	-son	2b-\	-son
2r	.	2r	.	.	.	2r	.
.	.	.	.	4r	.	.	.
!LO:LB:g=original	!	!	!	!	!	!	!
=33	=33	=33	=33	=33	=33	=33	=33
4.G\	Ky-	4.Bn\	Ky-	4.fn\	Ky-	4.dd\	Ky-
8G\	-ri-	8B\	-ri-	8f\	-ri-	8dd\	-ri-
4G\	-e	4B\	-e	4f\	-e	4dd\	-e
4Fn\	e-	4B\	e-	4a-X\	e-	4dd\	e-
=34	=34	=34	=34	=34	=34	=34	=34
4E-\	-le-	2G/	-lei-	4g\	-le-	4cc\	-le-
4D\	-i-	.	.	4f\	-i-	4bn\	-i-
!	!	!	!	!LO:LB:g=original	!	!	!
4C/	-son	4G/	-son	4e-\	-son	4cc\	-son
4BBn/	e-	4G/	e-	4d\	e-	4b\	e-
!	!	!	!	!	!	!LO:LB:g=original	!
=35	=35	=35	=35	=35	=35	=35	=35
(>8C\L	-le-	2G/	-le-	(>8e-\L	-le-	2cc\	-le-
8D\	.	.	.	8f\	.	.	.
8E-\	.	.	.	8g\	.	.	.
8F\J)	.	.	.	8a-\J)	.	.	.
(>4G\	-i-	2Bn\	-i-	2g\	-i-	2dd\	-i-
4GG/)	.	.	.	.	.	.	.
!	!	!LO:LB:g=original	!	!	!	!	!
=36	=36	=36	=36	=36	=36	=36	=36
2C/	-son	2c\	-son	2g\	-son	2ee-\	-son
2c\	e-	2c\	e-	2g\	e-	2ee-\	e-
=37	=37	=37	=37	=37	=37	=37	=37
1A-X	-le-	1c	-le-	1f	-le-	1cc	-le-
=38	=38	=38	=38	=38	=38	=38	=38
1F#X	-i-	1c	-i-	1an	-i-	1ee-	-i-
!LO:LB:g=original	!	!	!	!	!	!	!
=39	=39	=39	=39	=39	=39	=39	=39
2G\	-son	2Bn\	-son	2g\	-son	2dd\	-son
2G\	e-	2c\	e-	2g\	e-	2ee-\	e-
=40	=40	=40	=40	=40	=40	=40	=40
2G\	-le-	2c\	-le-	1g	-lei-	2ee-\	-le-
2GG/	-i-	2Bn\	-i-	.	.	2dd\	-i-
=41	=41	=41	=41	=41	=41	=41	=41
!	!	!	!	!	!	!LO:TX:a:t=P:problem:w źródle ta adnotacja zapisana na poniższej, pustej pięciolinii	!
!	!	!	!	!	!	!LO:TX:b:i:t=Seque Credo V&colon; S&colon;	!
1C	-son.	1c	-son.	1g	-son.	1ee-	-son.
==	==	==	==	==	==	==	==
*-	*-	*-	*-	*-	*-	*-	*-
!!!system-decoration: [(s1,s2,s3,s4)]
!!!RDF**kern: > = above
!!!RDF**kern: < = below
!!!EED: Antoni Szymański
!!!EST: 2021-02-05
!!!ENC: Andrzej Kubiczek
!!!END: 2021-01-28
